icons/Pause-Circle.svg

<svg width="24" height="24" viewBox="0 0 24 24" fill="none" xmlns="http://www.w3.org/2000/svg">
<g id="Pause-Circle">
<path id="Vector" d="M9.97 8.23999H8.24C7.75951 8.23999 7.37 8.6295 7.37 9.10999V14.89C7.37 15.3705 7.75951 15.76 8.24 15.76H9.97C10.4505 15.76 10.84 15.3705 10.84 14.89V9.10999C10.84 8.6295 10.4505 8.23999 9.97 8.23999Z" stroke="#00153F" stroke-width="1.5" stroke-linecap="round" stroke-linejoin="round"/>
<path id="Vector_2" d="M15.76 8.23999H14.03C13.5495 8.23999 13.16 8.6295 13.16 9.10999V14.89C13.16 15.3705 13.5495 15.76 14.03 15.76H15.76C16.2405 15.76 16.63 15.3705 16.63 14.89V9.10999C16.63 8.6295 16.2405 8.23999 15.76 8.23999Z" stroke="#00153F" stroke-width="1.5" stroke-linecap="round" stroke-linejoin="round"/>
<path id="Vector_3" d="M12 21C16.9706 21 21 16.9706 21 12C21 7.02944 16.9706 3 12 3C7.02944 3 3 7.02944 3 12C3 16.9706 7.02944 21 12 21Z" stroke="#00153F" stroke-width="1.5" stroke-linecap="round" stroke-linejoin="round"/>
</g>
</svg>

<svg xmlns="http://www.w3.org/2000/svg" fill="none" viewBox="0 0 24 24"><g stroke="currentColor" stroke-linecap="round" stroke-linejoin="round" stroke-width="1.5"><path d="M9.97 8.24H8.24a.87.87 0 0 0-.87.87v5.78c0 .48.39.87.87.87h1.73c.48 0 .87-.39.87-.87V9.11a.87.87 0 0 0-.87-.87Zm5.79 0h-1.73a.87.87 0 0 0-.87.87v5.78c0 .48.39.87.87.87h1.73c.48 0 .87-.39.87-.87V9.11a.87.87 0 0 0-.87-.87Z"/><path d="M12 21a9 9 0 1 0 0-18 9 9 0 0 0 0 18Z"/></g></svg>
